X: 5292
T: Brother Darel Starkey's
R: reel
M: 4/4
K: Dmajor
|:dcd2 c2Bc|AGFD FGAF|FGAB AGFE|dcBA FGEE|
dcd2 c2Bc|AGFD FGAG|gfed cABc|AFEF D2FA:|
|:DDDE FGAF|ABcd efge|afge fdec|dBcA BGAF|
DDDE FGAF|ABcd efge|aaaf ggge|1 fged edcB:|2 AFEF D2FD||
|:EEED EFGF|FGAB cdeg|aaaf ggge|bage ccAA|
EEED EFGF|FGAB cdeg|aaaf ggge|bage ccAA:|

